ui/StatusQ/src/assets/img/icons/tiny/tiny-checkmark.svg

<svg fill="none" height="4" viewBox="0 0 6 4" width="6" xmlns="http://www.w3.org/2000/svg"><path clip-rule="evenodd" d="m2.21097 2.79222 2.52757-2.536495c.17362-.1742371.45453-.1748298.63015.001402.17439.175011.1753.457849.00139.632371l-2.84474 2.854782c-.08633.08663-.19919.13034-.31244.13072-.11661-.00088-.22979-.0439-.31479-.1292l-1.268914-1.27339c-.172787-.1734-.1727-.45462.002912-.63085.174396-.17501.458182-.17398.628632-.00292z" fill="#fff" fill-rule="evenodd"/></svg>

<svg width="6" height="4" viewBox="0 0 6 4" fill="none" xmlns="http://www.w3.org/2000/svg">
<path fill-rule="evenodd" clip-rule="evenodd" d="M2.21097 2.79222L4.73854 0.255725C4.91216 0.0814879 5.19307 0.0808952 5.36869 0.257127C5.54308 0.432138 5.54399 0.714976 5.37008 0.889498L2.52534 3.74428C2.43901 3.83091 2.32615 3.87462 2.2129 3.875C2.09629 3.87412 1.98311 3.8311 1.89811 3.7458L0.629196 2.47241C0.456409 2.29901 0.456496 2.01779 0.632108 1.84156C0.806504 1.66655 1.09029 1.66758 1.26074 1.83864L2.21097 2.79222Z" fill="white"/>
</svg>
